Newaita/actions/24/media-view-subtitles.svg

<svg height="24" viewBox="0 0 24 24" width="24" xmlns="http://www.w3.org/2000/svg"><g fill="#424242"><path d="m16.371094 16.0625h4.964844c.273437 0 .496093.222656.496093.496094v.992187c0 .277344-.222656.496094-.496093.496094h-4.964844c-.273438 0-.496094-.21875-.496094-.496094v-.992187c0-.273438.222656-.496094.496094-.496094zm0 0"/><path d="m2.480469 20.03125h8.929687c.273438 0 .496094.222656.496094.5v.992188c0 .273437-.222656.496093-.496094.496093h-8.929687c-.273438 0-.496094-.222656-.496094-.496093v-.992188c0-.277344.222656-.5.496094-.5zm0 0"/><path d="m3.96875 2.171875c-1.097656 0-1.984375.886719-1.984375 1.984375v9.921875h1.984375v-8.929687c0-.550782.441406-.992188.992188-.992188h13.890624c.550782 0 .992188.441406.992188.992188v8.929687h1.988281v-9.921875c0-1.097656-.886719-1.984375-1.988281-1.984375zm0 0"/><path d="m2.480469 16.0625h2.976562c.273438 0 .496094.222656.496094.496094v.992187c0 .277344-.222656.496094-.496094.496094h-2.976562c-.273438 0-.496094-.21875-.496094-.496094v-.992187c0-.273438.222656-.496094.496094-.496094zm0 0"/><path d="m7.9375 16.0625h5.953125c.273437 0 .496094.222656.496094.496094v.992187c0 .277344-.222657.496094-.496094.496094h-5.953125c-.273438 0-.496094-.21875-.496094-.496094v-.992187c0-.273438.222656-.496094.496094-.496094zm0 0"/><path d="m13.890625 20.03125h2.976563c.277343 0 .496093.222656.496093.5v.992188c0 .273437-.21875.496093-.496093.496093h-2.976563c-.273437 0-.496094-.222656-.496094-.496093v-.992188c0-.277344.222657-.5.496094-.5zm0 0"/><path d="m19.347656 20.03125h1.988282c.273437 0 .496093.222656.496093.5v.992188c0 .273437-.222656.496093-.496093.496093h-1.988282c-.273437 0-.496094-.222656-.496094-.496093v-.992188c0-.277344.222657-.5.496094-.5zm0 0"/></g></svg>

<?xml version="1.0" encoding="UTF-8"?>
<svg xmlns="http://www.w3.org/2000/svg" xmlns:xlink="http://www.w3.org/1999/xlink" width="24px" height="24px" viewBox="0 0 24 24" version="1.1">
<g id="surface1">
<path style=" stroke:none;fill-rule:nonzero;fill:rgb(25.882354%,25.882354%,25.882354%);fill-opacity:1;" d="M 16.371094 16.0625 L 21.335938 16.0625 C 21.609375 16.0625 21.832031 16.285156 21.832031 16.558594 L 21.832031 17.550781 C 21.832031 17.828125 21.609375 18.046875 21.335938 18.046875 L 16.371094 18.046875 C 16.097656 18.046875 15.875 17.828125 15.875 17.550781 L 15.875 16.558594 C 15.875 16.285156 16.097656 16.0625 16.371094 16.0625 Z M 16.371094 16.0625 "/>
<path style=" stroke:none;fill-rule:nonzero;fill:rgb(25.882354%,25.882354%,25.882354%);fill-opacity:1;" d="M 2.480469 20.03125 L 11.410156 20.03125 C 11.683594 20.03125 11.90625 20.253906 11.90625 20.53125 L 11.90625 21.523438 C 11.90625 21.796875 11.683594 22.019531 11.410156 22.019531 L 2.480469 22.019531 C 2.207031 22.019531 1.984375 21.796875 1.984375 21.523438 L 1.984375 20.53125 C 1.984375 20.253906 2.207031 20.03125 2.480469 20.03125 Z M 2.480469 20.03125 "/>
<path style=" stroke:none;fill-rule:nonzero;fill:rgb(25.882354%,25.882354%,25.882354%);fill-opacity:1;" d="M 3.96875 2.171875 C 2.871094 2.171875 1.984375 3.058594 1.984375 4.15625 L 1.984375 14.078125 L 3.96875 14.078125 L 3.96875 5.148438 C 3.96875 4.597656 4.410156 4.15625 4.960938 4.15625 L 18.851562 4.15625 C 19.402344 4.15625 19.84375 4.597656 19.84375 5.148438 L 19.84375 14.078125 L 21.832031 14.078125 L 21.832031 4.15625 C 21.832031 3.058594 20.945312 2.171875 19.84375 2.171875 Z M 3.96875 2.171875 "/>
<path style=" stroke:none;fill-rule:nonzero;fill:rgb(25.882354%,25.882354%,25.882354%);fill-opacity:1;" d="M 2.480469 16.0625 L 5.457031 16.0625 C 5.730469 16.0625 5.953125 16.285156 5.953125 16.558594 L 5.953125 17.550781 C 5.953125 17.828125 5.730469 18.046875 5.457031 18.046875 L 2.480469 18.046875 C 2.207031 18.046875 1.984375 17.828125 1.984375 17.550781 L 1.984375 16.558594 C 1.984375 16.285156 2.207031 16.0625 2.480469 16.0625 Z M 2.480469 16.0625 "/>
<path style=" stroke:none;fill-rule:nonzero;fill:rgb(25.882354%,25.882354%,25.882354%);fill-opacity:1;" d="M 7.9375 16.0625 L 13.890625 16.0625 C 14.164062 16.0625 14.386719 16.285156 14.386719 16.558594 L 14.386719 17.550781 C 14.386719 17.828125 14.164062 18.046875 13.890625 18.046875 L 7.9375 18.046875 C 7.664062 18.046875 7.441406 17.828125 7.441406 17.550781 L 7.441406 16.558594 C 7.441406 16.285156 7.664062 16.0625 7.9375 16.0625 Z M 7.9375 16.0625 "/>
<path style=" stroke:none;fill-rule:nonzero;fill:rgb(25.882354%,25.882354%,25.882354%);fill-opacity:1;" d="M 13.890625 20.03125 L 16.867188 20.03125 C 17.144531 20.03125 17.363281 20.253906 17.363281 20.53125 L 17.363281 21.523438 C 17.363281 21.796875 17.144531 22.019531 16.867188 22.019531 L 13.890625 22.019531 C 13.617188 22.019531 13.394531 21.796875 13.394531 21.523438 L 13.394531 20.53125 C 13.394531 20.253906 13.617188 20.03125 13.890625 20.03125 Z M 13.890625 20.03125 "/>
<path style=" stroke:none;fill-rule:nonzero;fill:rgb(25.882354%,25.882354%,25.882354%);fill-opacity:1;" d="M 19.347656 20.03125 L 21.335938 20.03125 C 21.609375 20.03125 21.832031 20.253906 21.832031 20.53125 L 21.832031 21.523438 C 21.832031 21.796875 21.609375 22.019531 21.335938 22.019531 L 19.347656 22.019531 C 19.074219 22.019531 18.851562 21.796875 18.851562 21.523438 L 18.851562 20.53125 C 18.851562 20.253906 19.074219 20.03125 19.347656 20.03125 Z M 19.347656 20.03125 "/>
</g>
</svg>
